X:1
T:Title
%%score { ( 1 3 ) | ( 2 4 5 ) }
L:1/8
M:4/4
K:Bb
V:1 treble nm="Grand Piano"
V:3 treble 
V:2 bass 
V:4 bass 
V:5 bass 
V:1
 z4 z2[Q:1/4=110] F2 | B3 F =EFGA | B2 c2 d2 B2 | [Gc]3 [Gc] [DFB]2 [CEA]2 | [B,DB]6 D2 | %5
 G3 ^F GABc | d2 d2 d2 B2 | [=Ed]2 [Ec]2 [CEB]2 [B,EG]2 | [A,F]6 z2 | %9
 [CE]3[K:treble] F [EA]2 [EG]2 | [DG]2 [B,D]2 [F,DF]2 [DF]2 | [CE]3[K:treble] F [EA]2 [EG]2 | %12
 [DF]4- [F,DF]2 F2 | [EG]3 G [GB]2 [EG]2 | [DF]2 [DB]2 [Fd]2 [DB]2 | [Fd]2 [Ec]2 [DB]2 [CA]2 | %16
[M:3/4] [DB]6 |[M:4/4] [DB]2 [DB]>[Ec] [Fd]2 [DB]2 | [B,EA]4 [B,EG]4 | %19
 [CEc]2 [Ec]>[Fd] [Ge]2 [Ec]2 | [CEA]6 F,2 | B2 B>B c2 d2 | e4 [B=e]4 | [Bf]2 [Bd]>B d2 c2 | %24
 [DB]6 z2 |] %25
V:2
 z4 z2 F,2 | B,3 F, =E,F,G,A, | [B,DF]2 [A,CF]2 [B,F]2 [B,DF]2 | [E,E]3 [E,E] F,2 F,2 | B,,6 D,2 | %5
 G,3 ^F, G,A,B,[K:treble]C | [B,DF]2 [A,C^F]2 [G,B,G]2 [G,B,G]2 | [C,B,]2 [C,G,]2 C,2 C,2 | %8
 F,6 F2 | C,2 z D [C,F,]2 F,,2 | [B,,F,]2 F,,2 B,,2 F,,2 | C,2 z D [C,F,]2 F,,2 | %12
 B,,2 F,,2 B,,2 D2 | z2 z E B,2 B,2 | z2 B,2 B,2 B,2 | [E,,E,]4 [F,,F,]4 |[M:3/4] [B,,F,]6 | %17
[M:4/4] [B,,F,]2 [B,,F,]>[B,,F,] [B,,B,]2 [B,,B,]2 | E,2 F,2 G,2 E,2 | %19
 C,2 [C,G,]>[C,G,] [C,C]2 [C,C]2 | F,2 G,2 A,2 z2 | [B,DF]2 [B,DF]>[B,DF] [A,CF]2 [_A,B,F]2 | %22
 [G,B,G]4[K:bass] [^F,_D]4 | [F,D]2 [F,DF]>[F,DF] [F,B,F]2 [F,A,E]2 | [B,,B,]6 z2 |] %25
V:3
 x8 | x8 | x8 | x8 | x8 | x8 | x8 | x8 | x8 | F,2 z2[K:treble] z4 | x8 | F,2 z2[K:treble] z4 | %12
 F,2 z2 z4 | x8 | x8 | x8 |[M:3/4] x6 |[M:4/4] x8 | x8 | x8 | x8 | x8 | x8 | x8 | x8 |] %25
V:4
 x8 | x8 | x8 | x8 | x8 | x7[K:treble] x | x8 | x8 | x8 | z2 F,,2 z4 | x8 | z2 F,,2 z4 | x8 | %13
 z2 B,2 z4 | B,,8 | x8 |[M:3/4] x6 |[M:4/4] x8 | x8 | x8 | x8 | x8 | x4[K:bass] x4 | x8 | x8 |] %25
V:5
 x8 | x8 | x8 | x8 | x8 | x7[K:treble] x | x8 | x8 | x8 | x8 | x8 | x8 | x8 | E,8 | x8 | x8 | %16
[M:3/4] x6 |[M:4/4] x8 | x8 | x8 | x8 | x8 | x4[K:bass] x4 | x8 | x8 |] %25

